apps/ledger-live-desktop/src/renderer/images/lending-illu-2.svg

<svg width="80" height="92" viewBox="0 0 80 92" fill="none" xmlns="http://www.w3.org/2000/svg">
<rect x="14" y="38" width="52" height="54" fill="url(#paint0_linear)" fill-opacity="0.3"/>
<g filter="url(#filter0_d)">
<path d="M14 38C14 23.6406 25.6406 12 40 12C54.3594 12 66 23.6406 66 38C66 52.3594 54.3594 64 40 64C25.6406 64 14 52.3594 14 38Z" fill="#2775CA"/>
<g clip-path="url(#clip0)">
<path fill-rule="evenodd" clip-rule="evenodd" d="M37.2633 47.5152C37.2633 47.8573 36.9896 48.0511 36.6703 47.9485C32.2457 46.5345 29.0527 42.4064 29.0527 37.5143C29.0527 32.6336 32.2457 28.4941 36.6703 27.0801C37.001 26.9774 37.2633 27.1713 37.2633 27.5134V28.3687C37.2633 28.5967 37.0922 28.859 36.8755 28.9389C33.3747 30.2274 30.8773 33.5915 30.8773 37.5143C30.8773 41.4485 33.3747 44.8011 36.8755 46.0783C37.0922 46.1582 37.2633 46.4204 37.2633 46.6485V47.5152ZM40.9124 44.3564C40.9124 44.6073 40.7071 44.8126 40.4562 44.8126H39.544C39.2931 44.8126 39.0878 44.6073 39.0878 44.3564V42.9196C37.0922 42.6459 36.1229 41.5398 35.8606 40.0117C35.815 39.7494 36.0203 39.5213 36.2826 39.5213H37.3203C37.5369 39.5213 37.7194 39.681 37.765 39.8863C37.9589 40.7871 38.4834 41.4827 40.0799 41.4827C41.2545 41.4827 42.0983 40.8213 42.0983 39.8406C42.0983 38.8599 41.608 38.4836 39.8747 38.1985C37.3203 37.8564 36.1115 37.081 36.1115 35.0854C36.1115 33.5459 37.2861 32.3371 39.0878 32.0863V30.6722C39.0878 30.4213 39.2931 30.2161 39.544 30.2161H40.4562C40.7071 30.2161 40.9124 30.4213 40.9124 30.6722V32.1205C42.3834 32.3827 43.3185 33.2152 43.6264 34.6064C43.6834 34.8687 43.4782 35.1082 43.2045 35.1082H42.2466C42.0413 35.1082 41.8703 34.9713 41.8133 34.7775C41.551 33.8994 40.9238 33.5117 39.829 33.5117C38.6203 33.5117 37.9931 34.0933 37.9931 34.9143C37.9931 35.781 38.3466 36.2143 40.2054 36.4766C42.7141 36.8187 44.0141 37.5371 44.0141 39.6696C44.0141 41.2889 42.8054 42.6003 40.9238 42.8968V44.3564H40.9124ZM42.7369 47.5152C42.7369 47.8573 42.9992 48.0512 43.3299 47.9485C47.7545 46.5345 50.9475 42.4064 50.9475 37.5143C50.9475 32.6336 47.7545 28.4941 43.3299 27.1029C43.0106 27.0003 42.7369 27.1941 42.7369 27.5362V28.3915C42.7369 28.6196 42.908 28.8819 43.1247 28.9617C46.6255 30.2389 49.1229 33.5915 49.1229 37.5257C49.1229 41.4485 46.6141 44.8126 43.1247 46.0898C42.8852 46.1696 42.7369 46.409 42.7369 46.6599V47.5152Z" fill="white"/>
</g>
</g>
<defs>
<filter id="filter0_d" x="0" y="0" width="80" height="80" filterUnits="userSpaceOnUse" color-interpolation-filters="sRGB">
<feFlood flood-opacity="0" result="BackgroundImageFix"/>
<feColorMatrix in="SourceAlpha" type="matrix" values="0 0 0 0 0 0 0 0 0 0 0 0 0 0 0 0 0 0 127 0"/>
<feOffset dy="2"/>
<feGaussianBlur stdDeviation="7"/>
<feColorMatrix type="matrix" values="0 0 0 0 0.152941 0 0 0 0 0.458824 0 0 0 0 0.792157 0 0 0 0.35 0"/>
<feBlend mode="normal" in2="BackgroundImageFix" result="effect1_dropShadow"/>
<feBlend mode="normal" in="SourceGraphic" in2="effect1_dropShadow" result="shape"/>
</filter>
<linearGradient id="paint0_linear" x1="40" y1="38" x2="40" y2="92" gradientUnits="userSpaceOnUse">
<stop stop-color="#2775CA"/>
<stop offset="1" stop-color="#2775CA" stop-opacity="0"/>
</linearGradient>
<clipPath id="clip0">
<rect width="21.8947" height="21.8947" fill="white" transform="translate(29.0527 27.0526)"/>
</clipPath>
</defs>
</svg>

<svg xmlns="http://www.w3.org/2000/svg" width="80" height="92" fill="none" viewBox="0 0 80 92"><path fill="url(#a)" fill-opacity=".3" d="M14 38h52v54H14z"/><g filter="url(#b)"><path fill="#2775ca" d="M14 38c0-14.36 11.64-26 26-26s26 11.64 26 26-11.64 26-26 26-26-11.64-26-26"/><g clip-path="url(#c)"><path fill="#fff" fill-rule="evenodd" d="M37.263 47.515c0 .342-.273.536-.593.434a10.95 10.95 0 0 1-7.617-10.435c0-4.88 3.193-9.02 7.617-10.434.331-.103.593.091.593.433v.856c0 .228-.17.49-.387.57-3.501 1.288-5.999 4.653-5.999 8.575 0 3.935 2.498 7.287 5.999 8.564.216.08.387.342.387.57zm3.65-3.159a.46.46 0 0 1-.457.457h-.912a.46.46 0 0 1-.456-.457V42.92c-1.996-.274-2.965-1.38-3.227-2.908a.42.42 0 0 1 .422-.49h1.037c.217 0 .4.159.445.364.194.901.718 1.597 2.315 1.597 1.175 0 2.018-.662 2.018-1.642 0-.981-.49-1.357-2.223-1.642-2.555-.343-3.764-1.118-3.764-3.114 0-1.54 1.175-2.748 2.977-2.999v-1.414c0-.25.205-.456.456-.456h.912c.251 0 .456.205.456.456v1.448c1.471.263 2.407 1.095 2.714 2.486a.42.42 0 0 1-.421.502h-.958a.45.45 0 0 1-.434-.33c-.262-.879-.89-1.266-1.984-1.266-1.209 0-1.836.581-1.836 1.402 0 .867.354 1.3 2.212 1.563 2.51.342 3.81 1.06 3.81 3.193 0 1.619-1.21 2.93-3.091 3.227v1.46zm1.824 3.16c0 .341.262.535.593.433a10.95 10.95 0 0 0 7.618-10.435c0-4.88-3.193-9.02-7.618-10.411-.32-.103-.593.091-.593.433v.855c0 .229.171.49.388.57 3.5 1.278 5.998 4.63 5.998 8.565 0 3.922-2.509 7.287-5.998 8.564a.59.59 0 0 0-.388.57z" clip-rule="evenodd"/></g></g><defs><linearGradient id="a" x1="40" x2="40" y1="38" y2="92" gradientUnits="userSpaceOnUse"><stop stop-color="#2775ca"/><stop offset="1" stop-color="#2775ca" stop-opacity="0"/></linearGradient><clipPath id="c"><path fill="#fff" d="M29.053 27.053h21.895v21.895H29.053z"/></clipPath><filter id="b" width="80" height="80" x="0" y="0" color-interpolation-filters="sRGB" filterUnits="userSpaceOnUse"><feFlood flood-opacity="0" result="BackgroundImageFix"/><feColorMatrix in="SourceAlpha" values="0 0 0 0 0 0 0 0 0 0 0 0 0 0 0 0 0 0 127 0"/><feOffset dy="2"/><feGaussianBlur stdDeviation="7"/><feColorMatrix values="0 0 0 0 0.152941 0 0 0 0 0.458824 0 0 0 0 0.792157 0 0 0 0.35 0"/><feBlend in2="BackgroundImageFix" result="effect1_dropShadow"/><feBlend in="SourceGraphic" in2="effect1_dropShadow" result="shape"/></filter></defs></svg>
